_includes/icons/ios-comments.svg

<svg fill="#666" height="50" viewBox="0 0 50 50" width="50" xmlns="http://www.w3.org/2000/svg"><path d="m7 4c-2.746094 0-5 2.253906-5 5v24c0 2.746094 2.253906 5 5 5h4.09375c.136719 1.203125.121094 2.316406-.1875 3.25-.378906 1.148438-1.085937 2.113281-2.40625 2.90625-.371094.234375-.542969.683594-.429687 1.105469.113281.421875.492187.722656.929687.738281 4.242188 0 9.105469-2.214844 11.5625-8h22.4375c2.746094 0 5-2.253906 5-5v-24c0-2.746094-2.253906-5-5-5zm0 2h36c1.65625 0 3 1.34375 3 3v24c0 1.65625-1.34375 3-3 3h-23c-.417969 0-.792969.261719-.9375.65625-1.554687 4.242188-4.332031 6.261719-7.21875 7 .390625-.558594.761719-1.148437.96875-1.78125.519531-1.578125.476563-3.304687.15625-5.0625-.089844-.464844-.492187-.804687-.96875-.8125h-5c-1.65625 0-3-1.34375-3-3v-24c0-1.65625 1.34375-3 3-3z"/></svg>

<svg xmlns="http://www.w3.org/2000/svg" viewBox="0 0 50 50" width="50" height="50" fill="#666"><path d="M 7 4 C 4.253906 4 2 6.253906 2 9 L 2 33 C 2 35.746094 4.253906 38 7 38 L 11.09375 38 C 11.230469 39.203125 11.214844 40.316406 10.90625 41.25 C 10.527344 42.398438 9.820313 43.363281 8.5 44.15625 C 8.128906 44.390625 7.957031 44.839844 8.070313 45.261719 C 8.183594 45.683594 8.5625 45.984375 9 46 C 13.242188 46 18.105469 43.785156 20.5625 38 L 43 38 C 45.746094 38 48 35.746094 48 33 L 48 9 C 48 6.253906 45.746094 4 43 4 Z M 7 6 L 43 6 C 44.65625 6 46 7.34375 46 9 L 46 33 C 46 34.65625 44.65625 36 43 36 L 20 36 C 19.582031 36 19.207031 36.261719 19.0625 36.65625 C 17.507813 40.898438 14.730469 42.917969 11.84375 43.65625 C 12.234375 43.097656 12.605469 42.507813 12.8125 41.875 C 13.332031 40.296875 13.289063 38.570313 12.96875 36.8125 C 12.878906 36.347656 12.476563 36.007813 12 36 L 7 36 C 5.34375 36 4 34.65625 4 33 L 4 9 C 4 7.34375 5.34375 6 7 6 Z"/></svg>
